Resources/Public/Backend/Icons/ctype/denacharts_chart_bar.svg

<svg xmlns="http://www.w3.org/2000/svg" width="16" height="16" viewBox="0 0 16 16"><path d="M10.47,1.929V1.236A1.236,1.236,0,0,0,9.233,0h-8A1.235,1.235,0,0,0,0,1.236v.693A1.236,1.236,0,0,0,1.235,3.167h8A1.238,1.238,0,0,0,10.47,1.929Z"/><path d="M13.322,6.183V5.49a1.237,1.237,0,0,0-1.237-1.237H1.236A1.236,1.236,0,0,0,0,5.49v.693A1.235,1.235,0,0,0,1.236,7.419H12.085A1.236,1.236,0,0,0,13.322,6.183Z"/><path d="M16,14.764V14.07a1.235,1.235,0,0,0-1.235-1.235H1.245A1.236,1.236,0,0,0,.008,14.07v.694A1.236,1.236,0,0,0,1.245,16h13.52A1.237,1.237,0,0,0,16,14.764Z"/><path d="M9.316,10.451V9.758A1.237,1.237,0,0,0,8.079,8.52H1.235A1.236,1.236,0,0,0,0,9.758v.693a1.235,1.235,0,0,0,1.235,1.236H8.079A1.236,1.236,0,0,0,9.316,10.451Z"/></svg>

<svg viewBox="0 0 16 16" xmlns="http://www.w3.org/2000/svg"><path d="m10.47 1.93v-.69a1.23 1.23 0 0 0 -1.24-1.24h-8a1.23 1.23 0 0 0 -1.23 1.24v.69a1.24 1.24 0 0 0 1.23 1.24h8a1.24 1.24 0 0 0 1.24-1.24z"/><path d="m13.32 6.18v-.69a1.24 1.24 0 0 0 -1.23-1.24h-10.85a1.24 1.24 0 0 0 -1.24 1.24v.69a1.23 1.23 0 0 0 1.24 1.24h10.85a1.23 1.23 0 0 0 1.23-1.24z"/><path d="m16 14.76v-.69a1.23 1.23 0 0 0 -1.24-1.23h-13.52a1.23 1.23 0 0 0 -1.24 1.23v.69a1.23 1.23 0 0 0 1.24 1.24h13.52a1.23 1.23 0 0 0 1.24-1.24z"/><path d="m9.32 10.45v-.69a1.24 1.24 0 0 0 -1.24-1.24h-6.85a1.23 1.23 0 0 0 -1.23 1.24v.69a1.24 1.24 0 0 0 1.23 1.24h6.85a1.25 1.25 0 0 0 1.24-1.24z"/></svg>
